app/img/svg/footer-icon-btn-vk.svg

<?xml version="1.0" encoding="UTF-8"?>
<svg viewBox="0 0 36 20" version="1.1" xmlns="http://www.w3.org/2000/svg" xmlns:xlink="http://www.w3.org/1999/xlink">
    <defs>
        <polygon id="path-1" points="35.08 19.9997602 35.08 0.000272232341 -1.0181142e-05 0.000272232341 -1.0181142e-05 19.9997602 35.08 19.9997602"></polygon>
    </defs>
    <g id="Landing-64" stroke="none" stroke-width="1" fill="none" fill-rule="evenodd">
        <g id="Desktop-1248-13-(choose-device)" transform="translate(-527.000000, -4087.000000)">
            <g id="footer-icon-btn-vk" transform="translate(527.000000, 4087.000000)">
                <mask id="mask-2" fill="white">
                    <use xlink:href="#path-1"></use>
                </mask>
                <g id="Clip-2"></g>
                <path d="M33.470625,19.910625 L28.785625,19.980625 C28.785625,19.980625 27.774375,20.183125 26.455625,19.270625 C24.704375,18.069375 23.051875,14.938125 21.760625,15.348125 C20.460625,15.758125 20.499375,18.569375 20.499375,18.569375 C20.499375,18.569375 20.509375,19.170625 20.208125,19.488125 C19.888125,19.836875 19.248125,19.906875 19.248125,19.906875 L17.156875,19.906875 C17.156875,19.906875 12.533125,20.189375 8.460625,15.943125 C4.015625,11.319375 0.096875,2.146875 0.096875,2.146875 C0.096875,2.146875 -0.133125,1.544375 0.115625,1.255625 C0.394375,0.926875 1.146875,0.906875 1.146875,0.906875 L6.161875,0.878125 C6.161875,0.878125 6.631875,0.958125 6.971875,1.208125 C7.253125,1.409375 7.400625,1.796875 7.400625,1.796875 C7.400625,1.796875 8.210625,3.849375 9.283125,5.700625 C11.374375,9.311875 12.354375,10.103125 13.064375,9.721875 C14.095625,9.161875 13.785625,4.608125 13.785625,4.608125 C13.785625,4.608125 13.804375,2.956875 13.266875,2.226875 C12.846875,1.656875 12.055625,1.486875 11.716875,1.445625 C11.435625,1.403125 11.895625,0.753125 12.498125,0.455625 C13.398125,0.014375 14.989375,-0.014375 16.871875,0.004375 C18.331875,0.014375 18.764375,0.113125 19.334375,0.244375 C21.066875,0.664375 20.474375,2.274375 20.474375,6.139375 C20.474375,7.381875 20.253125,9.120625 21.143125,9.690625 C21.524375,9.939375 22.461875,9.728125 24.815625,5.739375 C25.926875,3.846875 26.765625,1.628125 26.765625,1.628125 C26.765625,1.628125 26.945625,1.226875 27.226875,1.058125 C27.518125,0.888125 27.909375,0.939375 27.909375,0.939375 L33.181875,0.910625 C33.181875,0.910625 34.764375,0.721875 35.023125,1.441875 C35.293125,2.190625 34.434375,3.943125 32.283125,6.814375 C28.750625,11.528125 28.350625,11.085625 31.293125,13.808125 C34.095625,16.410625 34.674375,17.679375 34.776875,17.839375 C35.916875,19.760625 33.476875,19.910625 33.476875,19.910625 L33.470625,19.910625 Z" id="Fill-1" fill="#FFFFFF" mask="url(#mask-2)"></path>
            </g>
        </g>
    </g>
</svg>

<svg viewBox="0 0 36 20" xmlns="http://www.w3.org/2000/svg" xmlns:xlink="http://www.w3.org/1999/xlink">
    <defs>
        <path id="a" d="M35.08 20V0H0v20h35.08z"/>
    </defs>
    <g fill="none" fill-rule="evenodd">
        <mask id="b" fill="#fff">
            <use xlink:href="#a"/>
        </mask>
        <path d="M33.47 19.91l-4.684.07s-1.012.203-2.33-.71c-1.752-1.2-3.404-4.332-4.695-3.922-1.3.41-1.262 3.221-1.262 3.221s.01.602-.29.92c-.32.348-.96.418-.96.418h-2.092s-4.624.282-8.696-3.964C4.016 11.32.097 2.147.097 2.147s-.23-.603.019-.891c.278-.33 1.03-.35 1.03-.35L6.163.879s.47.08.81.33c.281.201.429.589.429.589S8.21 3.849 9.283 5.7c2.091 3.61 3.071 4.402 3.781 4.02 1.032-.56.722-5.113.722-5.113s.018-1.651-.52-2.381c-.42-.57-1.21-.74-1.55-.781-.28-.043.18-.693.782-.99.9-.442 2.491-.47 4.374-.452 1.46.01 1.892.11 2.462.24 1.733.42 1.14 2.03 1.14 5.895 0 1.243-.22 2.982.67 3.552.38.248 1.318.037 3.672-3.952 1.11-1.892 1.95-4.11 1.95-4.11s.18-.402.46-.57c.292-.17.683-.12.683-.12L33.182.91s1.582-.19 1.841.53c.27.75-.589 2.502-2.74 5.373-3.532 4.714-3.932 4.272-.99 6.994 2.803 2.603 3.381 3.871 3.484 4.031 1.14 1.922-1.3 2.072-1.3 2.072h-.006z" fill="#FFF" mask="url(#b)"/>
    </g>
</svg>
